packages/foundations/assets/icons/functional/images/arrows/sort_up.svg

<svg xmlns="http://www.w3.org/2000/svg" width="32" height="32" fill="none"><path fill="#1A1C1F" fill-rule="evenodd" d="M8.56 2.115c-.247.131-.353.24-.46.472-.094.204-.098.605-.099 9.599L8 21.572l-2.2-2.197c-1.495-1.493-2.264-2.223-2.398-2.279-.575-.239-1.266.108-1.358.681L2.009 18l.038.24c.036.232.146.349 3.195 3.406 3.135 3.142 3.379 3.363 3.712 3.366.442.004.411.032 3.701-3.247q3.134-3.124 3.24-3.342c.286-.59-.095-1.307-.741-1.394-.523-.07-.428-.146-2.873 2.293l-2.253 2.247-.014-9.411c-.013-8.655-.021-9.424-.103-9.571-.117-.212-.355-.433-.541-.504-.217-.082-.625-.065-.81.032m18.027 10.987c-.49.257-.684.735-.511 1.258.069.211.34.489.554.57.233.088 2.556.075 2.773-.015.558-.234.764-1.066.377-1.527-.296-.351-.411-.375-1.791-.373-1.026.002-1.27.017-1.402.087m-4.001 4.999c-.205.089-.495.417-.536.607-.018.08-.04.172-.05.205-.038.125.091.532.223.705.076.099.237.225.357.28.207.094.408.1 3.42.1s3.213-.006 3.42-.1c.499-.227.721-.884.46-1.366a1.25 1.25 0 0 0-.51-.449c-.238-.09-6.575-.073-6.784.018m-4.693 4.911c-.029.01-.119.033-.199.051-.195.043-.52.335-.609.548a.98.98 0 0 0 .266 1.121c.107.093.284.196.395.228.141.041 1.881.054 5.854.043 5.616-.016 5.655-.017 5.867-.128.129-.068.273-.208.366-.357a.96.96 0 0 0-.339-1.363l-.241-.142-5.653-.009c-3.109-.006-5.677-.002-5.707.008m-5.28 5.087c-.892.406-.758 1.673.198 1.871.199.041 2.655.054 8.362.044 7.486-.013 8.092-.021 8.246-.105.22-.12.492-.436.531-.617.018-.08.04-.172.05-.205.038-.125-.091-.532-.223-.705a1.1 1.1 0 0 0-.357-.28c-.212-.096-.525-.1-8.407-.1-7.804 0-8.196.005-8.4.097"/></svg>

<svg width="32" height="32" viewBox="0 0 32 32" fill="none" xmlns="http://www.w3.org/2000/svg"><path d="M8.560 2.115 C 8.313 2.246,8.207 2.355,8.100 2.587 C 8.006 2.791,8.002 3.192,8.001 12.186 L 8.000 21.572 5.800 19.375 C 4.305 17.882,3.536 17.152,3.402 17.096 C 2.827 16.857,2.136 17.204,2.044 17.777 C 2.025 17.900,2.009 18.000,2.009 18.000 C 2.009 18.000,2.026 18.108,2.047 18.240 C 2.083 18.472,2.193 18.589,5.242 21.646 C 8.377 24.788,8.621 25.009,8.954 25.012 C 9.396 25.016,9.365 25.044,12.655 21.765 C 14.744 19.682,15.825 18.568,15.895 18.423 C 16.181 17.833,15.800 17.116,15.154 17.029 C 14.631 16.959,14.726 16.883,12.281 19.322 L 10.028 21.569 10.014 12.158 C 10.001 3.503,9.993 2.734,9.911 2.587 C 9.794 2.375,9.556 2.154,9.370 2.083 C 9.153 2.001,8.745 2.018,8.560 2.115 M26.587 13.102 C 26.097 13.359,25.903 13.837,26.076 14.360 C 26.145 14.571,26.416 14.849,26.630 14.930 C 26.863 15.018,29.186 15.005,29.403 14.915 C 29.961 14.681,30.167 13.849,29.780 13.388 C 29.484 13.037,29.369 13.013,27.989 13.015 C 26.963 13.017,26.719 13.032,26.587 13.102 M22.586 18.101 C 22.381 18.190,22.091 18.518,22.050 18.708 C 22.032 18.788,22.010 18.880,22.000 18.913 C 21.962 19.038,22.091 19.445,22.223 19.618 C 22.299 19.717,22.460 19.843,22.580 19.898 C 22.787 19.992,22.988 19.998,26.000 19.998 C 29.012 19.998,29.213 19.992,29.420 19.898 C 29.919 19.671,30.141 19.014,29.880 18.532 C 29.792 18.371,29.537 18.147,29.370 18.083 C 29.132 17.993,22.795 18.010,22.586 18.101 M17.893 23.012 C 17.864 23.022,17.774 23.045,17.694 23.063 C 17.499 23.106,17.174 23.398,17.085 23.611 C 16.922 24.002,17.028 24.448,17.351 24.732 C 17.458 24.825,17.635 24.928,17.746 24.960 C 17.887 25.001,19.627 25.014,23.600 25.003 C 29.216 24.987,29.255 24.986,29.467 24.875 C 29.596 24.807,29.740 24.667,29.833 24.518 C 30.132 24.036,29.984 23.443,29.494 23.155 L 29.253 23.013 23.600 23.004 C 20.491 22.998,17.923 23.002,17.893 23.012 M12.613 28.099 C 11.721 28.505,11.855 29.772,12.811 29.970 C 13.010 30.011,15.466 30.024,21.173 30.014 C 28.659 30.001,29.265 29.993,29.419 29.909 C 29.639 29.789,29.911 29.473,29.950 29.292 C 29.968 29.212,29.990 29.120,30.000 29.087 C 30.038 28.962,29.909 28.555,29.777 28.382 C 29.701 28.283,29.540 28.157,29.420 28.102 C 29.208 28.006,28.895 28.002,21.013 28.002 C 13.209 28.002,12.817 28.007,12.613 28.099 " fill="#1A1C1F" stroke="none" fill-rule="evenodd"></path></svg>
